X:448
T: Zhua bing diao
N: C1483
O: China, Yunnan, Yaoan
S: II, 49]
R: Wuge, Lianhualao]
M: 2/4
L: 1/8
K: C
A2dg | eddA | A2d2 | edAc | AGFA | GFD2z2
ddAc | dcAG | GAGF | DD2CD2
ddAc | AGFA | GFD2 | G2cd | dcAG | GAGF | DD2CD2

